!!! OTL: Berkowitz165
!!! Chapter: 1
!!! Section: I
!!! Page: 37
!!! Mode: 
!!! Encoder: DJB
**kern
*staff1
*I"Piano
=1-
*clefG2
*k[]
*a:
*M4/4
8ee\L
8cc\
8b\
8a\J
4b\
8r
8dd\
=2
8ff\L
8dd\
8b\
8dd\J
4ff\
8r
8ff\
=3
8dd/L
8b/
8g#/
8e/J
4dd\
8r
8b\
=4
16cc\LL
16b\
16cc\
16dd\JJ
8ee\L
8dd\J
4cc\
8r
8a/
=5
8b\L
8cc\
8dd\
8b\J
8cc\L
8dd\
8ee\
8cc\J
=6
!!linebreak:original
8b/L
8g#/J
8dd\L
16cc\L
16b\JJ
8cc\L
8b\J
4a/
=7
8f/L
8a/
8b/
8a/J
8e/L
8a/
8b/
8a/J
=8
8g#\L
8b\
8dd\
8cc\J
8b/L
16a/L
16g#/JJ
4a/
==
*-
